!! George Gerswhin, "It's A Great Little World" from
!! "Bumper Book of George Gerswhin,"
!! London: Chappell Music Ltd., 1987; pp.172-175
**kern
*M2/4
*MM[Allegretto]
!! Verse
=1
4r
4d
=2
4dd
8b-
8dd
=3
4cc#
8a
8cc#
=4
8ccn
8a
8cc
[8b-
=5
4b-]
8r
8B-
=6
4b-
8g
8b-
=7
4a
8f
8a
=8
8a-
8f
8a-
[8g
=9
2g]
=10
4d
8en
[8f#
=11
8f#]
8g
4b-
=12
4b-
[4a
=13
4a]
8g
8f#
!! page 173
=14
4g
8a
[8b-
=15
8b-]
8cc
4ee-
=16
4ee-
[4dd
=17
4dd]
8r
8d
=18
4dd
8b-
8dd
=19
4cc#
8a
8cc#
=20
8ccn
8a
8cc
[8b-
=21
4b-]
8r
8B-
=22
4b-
8g
8b-
=23
4a
8f
8a
=24
8a-
8f
8a-
[8g
=25
2g]
=26
4f
8g
[8a
=27
8a]
8b-
4dd
=28
4dd
[4cc
=29
2cc]
=30
8b-
8r
8dd
[8cc
=31
8cc]
8dd
8b-
8r
=32
8dd
8cc
8r
8dd
=33
2b-
=34
!! Refrain
*M2/4
8ee-
8r
[4ee-
=35
8ee-]
8cc
8ee-
8cc
=36
8ee-
8cc
8ee-
[8cc
=37
4cc]
4ee-
=38
4b-
[4b-
=39
2b-]
=40
8cc
8f
8g
[8b-
=41
2b-]
=42
8ee-
8r
[4ee-
=43
8ee-]
8cc
8ee-
8cc
=44
8ee-
8cc
8ee-
[8cc
=45
4cc]
4ee-
=46
8f
8r
[4ff
=47
2ff]
=48
8cc
8f
8g
[8b-
=49
2b-]
=50
8ee-
8ee-
4ee-
=51
8ee-
8ee-
4ee-
!! page 175
=52
8ff
8ee-
8ee-
[8ee-
=53
2ee-]
=54
8a-
8a-
4a-
=55
8a-
8a-
4a-
=56
8b-
8a-
8a-
[8a-
=57
4a-]
4b-
=58
8ee-
8r
[4ee-
=59
8ee-]
8cc
8ee-
8cc
=60
8dd
8cc
8dd
[8ff
=61
4ff]
4dd
=62
8b-
8r
[4b-
=63
4b-]
4cc
!! First ending.
=64
4ee-
4r
=65
2r
=34
!! Refrain
*M2/4
8ee-
8r
[4ee-
=35
8ee-]
8cc
8ee-
8cc
=36
8ee-
8cc
8ee-
[8cc
=37
4cc]
4ee-
=38
4b-
[4b-
=39
2b-]
=40
8cc
8f
8g
[8b-
=41
2b-]
=42
8ee-
8r
[4ee-
=43
8ee-]
8cc
8ee-
8cc
=44
8ee-
8cc
8ee-
[8cc
=45
4cc]
4ee-
=46
8f
8r
[4ff
=47
2ff]
=48
8cc
8f
8g
[8b-
=49
2b-]
=50
8ee-
8ee-
4ee-
=51
8ee-
8ee-
4ee-
!! page 175
=52
8ff
8ee-
8ee-
[8ee-
=53
2ee-]
=54
8a-
8a-
4a-
=55
8a-
8a-
4a-
=56
8b-
8a-
8a-
[8a-
=57
4a-]
4b-
=58
8ee-
8r
[4ee-
=59
8ee-]
8cc
8ee-
8cc
=60
8dd
8cc
8dd
[8ff
=61
4ff]
4dd
=62
8b-
8r
[4b-
=63
4b-]
4cc
!! Second ending.
=64
[2ee-
=65
4ee-]
4r
====
*-
